brandFactory_export/3.Masa/Pastillas _3Masa.svg

<?xml version="1.0" encoding="UTF-8"?>
<svg width="24px" height="24px" viewBox="0 0 24 24" version="1.1" xmlns="http://www.w3.org/2000/svg" xmlns:xlink="http://www.w3.org/1999/xlink">
    <title>3.Masa/Pastillas _3Masa</title>
    <g id="Symbols" stroke="none" stroke-width="1" fill="none" fill-rule="evenodd">
        <g id="3.Masa/Pastillas-_3Masa" fill="#5CB615" fill-rule="nonzero">
            <path d="M16.7596639,22.1277311 C13.3378151,22.1277311 11.6302521,20.6218487 11.4016807,17.4554622 L22.1210084,17.4554622 C21.8890756,20.6252101 20.1815126,22.1277311 16.7596639,22.1277311 Z M11.5361345,3.76470588 C11.6302521,3.65714286 11.7344538,3.55966387 11.8386555,3.45882353 L12.0336134,3.27058824 C14.4,0.897478992 16.6991597,0.900840336 19.0621849,3.27058824 C21.3546218,5.56638655 21.4151261,7.80168067 19.2672269,10.0941176 C18.5277311,9.89915966 17.697479,9.79495798 16.7630252,9.79495798 C14.1344538,9.79495798 12.2890756,10.5915966 11.1731092,12.0605042 C10.994958,11.8991597 10.8168067,11.7411765 10.6352941,11.5596639 C8.82016807,9.74117647 8.10756303,8.1512605 8.51428571,6.84033613 C8.5210084,6.82352941 8.51428571,6.80672269 8.5210084,6.78991597 L11.5361345,3.76470588 L11.5361345,3.76470588 Z M22.1210084,15.9630252 L11.4016807,15.9630252 C11.6336134,12.7966387 13.3411765,11.2907563 16.7596639,11.2907563 C20.1815126,11.2907563 21.8890756,12.7932773 22.1210084,15.9630252 L22.1210084,15.9630252 Z M20.7462185,10.6857143 C23.0420168,7.92268908 22.8302521,4.93781513 20.1142857,2.21512605 C17.1697479,-0.736134454 13.9226891,-0.739495798 10.9781513,2.21512605 L10.8067227,2.37983193 C10.6655462,2.51428571 10.5277311,2.64537815 10.4436975,2.74957983 L2.81344538,10.4033613 C2.67226891,10.5243697 2.53781513,10.6655462 2.40336134,10.8067227 L2.23865546,10.9747899 C0.8,12.4134454 0.0605042017,13.9260504 0.0336134454,15.4621849 C0.00672268908,17.0588235 0.749579832,18.6285714 2.24537815,20.1277311 C3.7210084,21.610084 5.27731092,22.3495798 6.8302521,22.3495798 C8.16134454,22.3495798 9.48571429,21.7983193 10.7563025,20.7092437 C11.7983193,22.5848739 13.7714286,23.6201681 16.7630252,23.6201681 C21.4621849,23.6201681 23.6605042,21.0689076 23.6605042,16.7058824 C23.6571429,13.8487395 22.712605,11.7781513 20.7462185,10.6857143 Z" id="Pastillas-_3Masa"></path>
        </g>
    </g>
</svg>

<svg width="24" height="24" viewBox="0 0 24 24" xmlns="http://www.w3.org/2000/svg"><path d="M16.76 22.128c-3.422 0-5.13-1.506-5.358-4.673H22.12c-.232 3.17-1.94 4.673-5.361 4.673zM11.536 3.765c.094-.108.198-.205.303-.306l.195-.188C14.4.897 16.699.9 19.062 3.27c2.293 2.295 2.353 4.53.205 6.823-.74-.195-1.57-.299-2.504-.299-2.629 0-4.474.797-5.59 2.266-.178-.162-.356-.32-.538-.501C8.82 9.74 8.108 8.15 8.515 6.84c.006-.016 0-.033.006-.05l3.015-3.025zm10.585 12.198h-10.72c.233-3.166 1.94-4.672 5.359-4.672 3.422 0 5.13 1.502 5.361 4.672zm-1.375-5.277c2.296-2.763 2.084-5.748-.632-8.47-2.944-2.952-6.191-2.955-9.136 0l-.171.164c-.141.134-.28.265-.363.37l-7.63 7.653c-.142.121-.276.263-.41.404l-.165.168C.8 12.413.06 13.926.034 15.462.007 17.06.75 18.63 2.245 20.128 3.721 21.61 5.277 22.35 6.83 22.35c1.331 0 2.656-.552 3.926-1.64 1.042 1.875 3.015 2.91 6.007 2.91 4.7 0 6.898-2.551 6.898-6.914-.004-2.857-.948-4.928-2.915-6.02z" fill="#5CB615" fill-rule="nonzero"/></svg>
